X:1
T:Phillida mia
T:Eliseo Ghibel
T:Source : Primo libro de Madrigali a tre voci---Venetia---A.Gardano---1552. (First publication : Venetia---G.Scotto---1551) Editor : André Vierendeels (12/11/17). Notes : Original clefs : C1, C3, F3 Editorial accidentals above the staff    
T:Phillida mia
T:©
T:©
T:©
T:©
C:Eliseo Ghibel
Z:©
%%score [ 1 2 3 ]
L:1/8
Q:1/4=120
M:4/4
K:F
V:1 treble nm="Soprano" snm="S"
V:2 treble-8 nm="Tenor" snm="T"
V:3 bass nm="Bass" snm="B"
V:1
 z8 | G4 A2 B2 | c3 c c2 B2 | A2 A2 G4 | G2 G4 B2 | F2 A2 D2 G2- |"^#" G2 F2 G4 | z2 D2 D4 | %8
w: |Phil- li- da|mia piu ch'i li-|gu- stri bian-|ca, piu ch'i|li- gu- stri bian-|* * ca,|piu ver-|
 D2 F4 F2 | D4 E2 F2- | FE D4 C2 | D2 D2 FFCC | EE G2 z2 G2 | BBFF AA c2 | c2 G3 A B2 | %15
w: mi- glia ch'el|pra- to'a me-|* zo'a- pri- *|le, piu fu- ga- ce, piu|gu- ga- ce, piu|fu- ga- ce, piu fu- ga- ce,|piu fu- ga- ce|
 B2 F3 G AB | c2 G2 z2 D2 | G2 G2 E2 F2 | D8 | E4 z4 | z2 C2 F4 | F2 D4 D2 | G6 G2 | A2 B2 c4 | %24
w: che cer- * * *|* va, et|a me piu pro-|ter-|va,|ch'a pan|non fu co-|lei che|vin- taet stan-|
 =B8 | z2 G2 G2 G2 | c2 c2 A4- | A2 F2 F2 D2 | D2 D2 D3 D | F6 B,2 | C2 D2 _E4 | D6 D2 | %32
w: ca,|di- ven- ne|can- na tre-|* mu- la, di-|ven- ne can- na|tre- mu-|la'et sot- ti-|le per|
"^-natural" E4 F4 | G2 G2 A4 | =B4 c4 | d4 c4 | A2 d2 B2 c2- | cB B4 A2 | B4 d4 | c2 B2 A2 G2 | %40
w: gui- dar|don, per gui-|dar don|de le|gra- vo- se so-||me, deh,|spar- gi'al ven- to|
 F2 DE FEFG | A2 G2 B2 A2- | AG G4 F2 | G4 d4 | c2 B2 A2 G2 | F2 DE FEFG | A2 G2 B2 A2- | %47
w: le do- * * * * *|* ra- te chio-||me, deh,|spar- gi'al ven- to|le do- * * * * *|* * te chio-|
 AG G4 F2 | G4 z2 D2- | D2 _E2 E2 D2 | C8 | =B,8 |] %52
w: |me, le|_ do- ra- te|chio-|me.|
V:2
 z8 | z4 z2 d2 | e2 f2 g3 g | g2 f2 e2 e2 | d4 d3 d | d2 c2 B2 c2 | A4 G4 | A4 B4 | B2 A4 A2 | %9
w: |Phil-|li- da mia piu|ch'i li- gu- stri|bian- ca, piu|ch'i li- gu- stri|bian- ca,|piu ver-|mi- glia ch'el|
 B4 c2 A2- | A2 B2 G4 | A4 z2 A2 | ccGG BB d2 | z2 d2 ffcc | ee g2 z2 g2 | d3 e f2 f2 | %16
w: pra- to'a me-|* zo'a- pri-|le, piu|fu- ga- ce, piu fu- ga- ce,|piu fu- ga- ce, piu|fu- ga- ce, piu|fu- ga- ce che|
 c3 d ef g2 | e2 d3 c c2- |"^-natural""^-natural" c2 BA B4 | c2 G4 c2- | c2 c2 A4 | A2 d4 B2 | %22
w: cer- * * * va,|et a me piu|_ pro- * ter-|va, ch'a pan|_ non fu|co- lei che|
 G2 c3 d e2- | ef g3 f fe/f/ | g2 d2 d2 d2 | g2 g2 e4- | e2 c2 c4 | z2 A4 B2- | B2 A2 B2 B2 | %29
w: vin- ta et stan-||ca, di- ven- ne|can- na tre-|* mi- la,|di- ven-|* ne can- na|
 c2 A2 F2 GF | GA B4 A2 | B6 G2- | G2 A4 B2- | B2 c4 d2- | d2 e4 f2- | f2 g4 e2 | f3 e d2 c2 | %37
w: tre- mu- la _ _|_ _ sot- ti-|le per|_ gui- dar|_ don, per|_ gui- dar|_ don, de|le gra- vo- se|
 d2 B2 c4 | B4 z4 | z2 B2 c2 c2 | d2 A2 d2 f2- | fe d3 c A2 | B2 c2 A4 | G8 | z2 B2 c2 c2 | %45
w: so- * *|me,|deh, spar- gi'al|ven- to le do-||ra- te chio-|me,|deh, spar- gi'al|
 d2 A2 d2 f2- | fe d3 c A2 | B2 c2 A4 | G4 z2 B2- | B2 c2 c2 B2 |"^b" e8 | d8 |] %52
w: ven- to le do-||ra- te chio-|me, le|_ do- ra- te|chio-|me.|
V:3
 G,4 A,2 B,2 | C3 C C2 B,2 | A,2 A,2 G,4 | D,2 D,2 E,3 F, | G,6 G,2 | B,2 F,2 G,2 C,2 | %6
w: Phil- li- da|mia piu ch'i li-|gu- stri bian-|ca, Phil- li- da|mia piu|ch'i li- gu- stri|
"^#" D,4 G,,4 | D,4 G,4 | G,2 F,4 D,2 | G,4 C,2 F,2- | F,2 G,2 E,4 | D,4 D,2 F,F, | C,C,E,E, G,4 | %13
w: bian- ca,|piu ver-|mi- glia ch'el|pra- to'a me-|* zo'a- pri-|le, piu fu- ga-|ce, piu fu- ga- ce,|
 G,2 B,B, F,F,A,A, | C2 C2 G,3 A, | B,2 B,2 F,3 G, | A,B, C4 G,2 | G,2 B,2 A,2 F,2 | G,8 | %19
w: piu fu- ga- ce, piu fu- ga-|ce, piu fu- ga-|ce che cer- *|* * va, et|a me piu pro-|ter-|
 C,4 C,4 | F,4 F,2 D,2- | D,2 D,2 G,4 | C,6 C2- | C2 B,2 A,4 | G,4 z2 G,2 | G,2 G,2 C2 C2 | %26
w: va, ch'a|pan non fu|_ co- lei|che vin-|* ta'et stan-|ca, di-|ven- ne can- na|
 A,6 F,2 | F,4 z2 G,2 | G,2 F,2 G,2 G,2 | F,4 B,,2 _E,2- | E,2 D,2 C,4 | B,,4 z4 | z4 D,4 | %33
w: tre- mu-|la, di-|ven- ne can- na|tre- mu- la'et|_ sot- ti-|le|per|
 E,4 F,4 | G,2 G,2 A,4 | B,4 C4 | z2 B,2 B,2 A,2 | B,2 G,2 F,4 |"^#" B,,4 B,4 | A,2 G,2 F,2 E,2 | %40
w: gui- dar|don, per gui-|dar- don,|de le gra-|vo- se so-|me, deh,|spar- gi'al ven- to|
 D,2 D,4 D2- | DCB,A, G,2 F,2 | _E,2 C,2 D,4 |"^#" G,4 B,4 | A,2 G,2 F,2 E,2 | D,2 D,4 D2- | %46
w: le do- ra-|* * * * * te|chio _ _|me, deh,|spar- gi'al ven- to|le do- ra-|
 DCB,A, G,2 F,2 | _E,2 C,2 D,4 | G,4 z2 G,2- | G,2 C,2 C,2 G,2 | C,8 | G,8 |] %52
w: * * * * * te|chio- * *|me, le|_ do- ra- te|chio-|me.|

